X:1
T:Cantate Domino
T:Cantate Domino
T:"Castrate Dominee'' - 4 celli
T:Karl Jenkins / arr. M. Westeneng
C:Karl Jenkins / arr. M. Westeneng
%%score 1 2 3 4
L:1/8
Q:1/4=46
M:3/4
K:C
V:1 bass nm="Cello 1" snm="Vc.1"
V:2 bass nm=" Cello 2" snm="Vc.2"
V:3 alto nm="Cello 3" snm="Vc.3"
V:4 bass nm="Cello 4" snm="Vc.4"
V:1
!p!"^In a monastic style" G,6 | G,6 | G,6 | G,6 ||!mp! G,/G,/G,/G,/ G,G, F,F, | %5
 G,G,/G,/ G,G, ^A,2 | A,/A,/A, A,A, F,F, | (!tenuto!G,>!tenuto!G,) G,4 | B,/B,/B,/B,/ B,B, DD | %9
 A,/A,/A,/A,/ A,A, CC | G,/G,/G,/G,/ G,G, B,B, | (!tenuto!^F,>!tenuto!F,) F,4 | %12
 G,G,/G,/ G,/G,/G, F,/F,/F, | G,G,/G,/ G,G, ^A,2 | A,/A,/A,/A,/ A,A, F,F, | %15
 (!tenuto!G,>!tenuto!G,) G,4 | B,/B,/B,/B,/ B,B, DD | A,/A,/A,/A,/ A,A, CC | %18
 G,/G,/G,/G,/ G,G, B,B, | (!tenuto!^F,>!tenuto!F,) F,4 |:"^A""^C""_cresc." A,A,/A,/ A,A,/A,/ B,B, | %21
 C/C/C/C/ CC D2 |"_cresc." E/E/E/E/ EE FF | ((E>D)) C4 | CC/C/ C/C/C A,C | %25
"_cresc." D>G, G,D/D/ (3:2:2(B,2 E) | D6 | ^DD/D/ D/D/D CD |"_cresc." F>^A, A,F/F/ (3:2:2(D2 G) | %29
 (!tenuto!C>!tenuto!C) A,D C2 | (!tenuto!C>!tenuto!C) (A,D C2) |!f! !>!D3 !fermata!D3!fine! |] %32
"^B"!mp! G,/G,/G,/G,/ G,G, F,F, | G,G,/G,/ G,G, ^A,2 | A,/A,/A, A,A, F,F, | %35
 (!tenuto!G,>!tenuto!G,) G,4 |!f! B,/B,/B,/B,/ B,B, DD | A,/A,/A,/A,/ A,A, CC | %38
 G,/G,/G,/G,/ G,G, B,B, | (!tenuto!^F,>!tenuto!F,) F,4 :| %40
V:2
!mp! D,4 G,2 | A,2 C4 | D4 C2 | F,2 A,4 ||!mp! D,/D,/D,/D,/ D,D, D,D, | ^D,D,/D,/ D,D, D,2 | %6
 F,/F,/F, F,F, C,C, | (!tenuto!E,>!tenuto!E,) E,4 | G,/G,/G,/G,/ G,G, G,^F, | %9
 F,/F,/F,/F,/ F,F, F,E, | E,/E,/E,/E,/ E,E, E,^D, | (!tenuto!D,>!tenuto!D,) D,4 | %12
 D,D,/D,/ D,/D,/D, D,/D,/D, | ^D,D,/D,/ D,D, D,2 | F,/F,/F,/F,/ F,F, C,C, | %15
 (!tenuto!E,>!tenuto!E,) E,4 | G,/G,/G,/G,/ G,G, G,^F, | F,/F,/F,/F,/ F,F, F,E, | %18
 E,/E,/E,/E,/ E,E, E,^D, | (!tenuto!D,>!tenuto!D,) D,4 |:"_cresc." F,F,/F,/ F,F,/F,/ A,A, | %21
 A,/A,/A,/A,/ A,A, B,2 |"_cresc." C/C/C/C/ CC CC | C2 G,4 | A,A,/A,/ A,/A,/A, E,A, | B,>D, D,4- | %26
 D,6 | CC/C/ C/C/C G,C | D>F, F,3 z | (!tenuto!A,>!tenuto!A,) F,A, A,2 | %30
 (!tenuto!A,>!tenuto!A,) (F, A,3) |!f! !>!B,3!f! !fermata!B,3 |]!p! (D,6 | ^D,6) | (F,4 C,2 | %35
 E,6) |!mp! (G,4- G,^F,) | (F,4- F,E,) | (E,4- E,^D,) | D,6 :| %40
V:3
!p! D6 | D6 | D6 | D6 ||!mp! ^A,/A,/A,/A,/ A,A, =A,A, | ^A,A,/A,/ A,A, G,2 | C/C/C CC A,A, | %7
 (!tenuto!B,>!tenuto!B,) B,4 | E/E/E/E/ EE DD | C/C/C/C/ CC G,G, | B,/B,/B,/B,/ B,B, ^F,F, | %11
 (!tenuto!A,>!tenuto!A,) A,4 | ^A,A,/A,/ A,/A,/A, =A,/A,/A, | ^A,A,/A,/ A,A, G,2 | %14
 C/C/C/C/ CC A,A, | (!tenuto!B,>!tenuto!B,) B,4 | E/E/E/E/ EE DD | C/C/C/C/ CC G,G, | %18
 B,/B,/B,/B,/ B,B, ^F,F, | (!tenuto!A,>!tenuto!A,) A,4 |:"_cresc." CC/C/ CC/C/ FF | %21
 E/E/E/E/ EE D2 |"_cresc." G/G/G/G/ GG AA | (G>F) E4 | EE/E/ E/E/E CE | G>B, B,4- | B,6 | %27
 GG/G/ G/G/G ^DG | ^A>D D3 z | (!tenuto!F>!tenuto!F) CF F2 | (!tenuto!F>!tenuto!F) (C F3) | %31
!f! !>!G3!f! !fermata!G3 |]!p! (^A,4 =A,2 | ^A,4 G,2) | (C4 A,2 | B,6) |!mp! (E4 D2) | (C4 G,2) | %38
 (B,4 ^F,2) | A,6 :| %40
V:4
!p! G,,6 | G,,6 | G,,6 | G,,6 ||!mp! G,,/G,,/G,,/G,,/ G,,G,, D,,D,, | ^D,,D,,/D,,/ D,,D,, C,,2 | %6
 D,,/D,,/D,, D,,D,, D,,D,, | (!tenuto!E,,>!tenuto!E,,) E,,B,, E,,2 | %8
 E,,/E,,/E,,/E,,/ E,,E,, B,,B,, | F,,/F,,/F,,/F,,/ F,,F,, C,,C,, | E,,/E,,/E,,/E,,/ E,,E,, B,,B,, | %11
 (!tenuto!D,,>!tenuto!D,,) D,,A,, D,,2 | G,,G,,/G,,/ G,,/G,,/G,, D,,/D,,/D,, | %13
 ^D,,D,,/D,,/ D,,D,, C,,2 | D,,/D,,/D,,/D,,/ D,,D,, D,,D,, | %15
 (!tenuto!E,,>!tenuto!E,,) E,,B,, E,,2 | E,,/E,,/E,,/E,,/ E,,E,, B,,B,, | %17
 F,,/F,,/F,,/F,,/ F,,F,, C,,C,, | E,,/E,,/E,,/E,,/ E,,E,, B,,B,, | %19
 (!tenuto!D,,>!tenuto!D,,) D,,A,, D,,2 |:"_cresc." F,,F,,/F,,/ F,,F,,/F,,/ D,D, | %21
 A,,/A,,/A,,/A,,/ A,,A,, G,,2 |"_cresc." C,/C,/C,/C,/ C,C, F,,F,, | C,,2 C,,E,, F,,>G,, | %24
 A,,A,,/A,,/ A,,/A,,/A,, A,,A,, | G,,2 G,,4- | G,,6 | C,C,/C,/ C,/C,/C, C,C, | ^A,,2 A,,3 z | %29
 (!tenuto!F,,>!tenuto!F,,) (F,,2 F,,2) | (!tenuto!F,,>!tenuto!F,,) F,,4 | %31
!f! !>!G,,3!f! !fermata!G,,3 |]!p! (G,,4 D,,2 | ^D,,4 C,,2) | (D,,6 | E,,3 B,, E,,2) | %36
!mp! (E,,4 B,,2) | (F,,4 C,,2) | (E,,4 B,,2) | (D,,3 A,, D,,2) :| %40

